Numix-GalliumOS/16/mimetypes/unknown.svg

<?xml version="1.0" encoding="UTF-8" standalone="no"?>
<svg
   xmlns:dc="http://purl.org/dc/elements/1.1/"
   xmlns:cc="http://creativecommons.org/ns#"
   xmlns:rdf="http://www.w3.org/1999/02/22-rdf-syntax-ns#"
   xmlns:svg="http://www.w3.org/2000/svg"
   xmlns="http://www.w3.org/2000/svg"
   xmlns:sodipodi="http://sodipodi.sourceforge.net/DTD/sodipodi-0.dtd"
   xmlns:inkscape="http://www.inkscape.org/namespaces/inkscape"
   width="16"
   height="16"
   viewBox="0 0 16 16"
   id="svg2"
   version="1.1"
   inkscape:version="0.48.5 r10040"
   sodipodi:docname="unknown.svg">
  <metadata
     id="metadata16">
    <rdf:RDF>
      <cc:Work
         rdf:about="">
        <dc:format>image/svg+xml</dc:format>
        <dc:type
           rdf:resource="http://purl.org/dc/dcmitype/StillImage" />
      </cc:Work>
    </rdf:RDF>
  </metadata>
  <defs
     id="defs14" />
  <sodipodi:namedview
     pagecolor="#ffffff"
     bordercolor="#666666"
     borderopacity="1"
     objecttolerance="10"
     gridtolerance="10"
     guidetolerance="10"
     inkscape:pageopacity="0"
     inkscape:pageshadow="2"
     inkscape:window-width="1280"
     inkscape:window-height="970"
     id="namedview12"
     showgrid="true"
     inkscape:zoom="14.75"
     inkscape:cx="-2.7030061"
     inkscape:cy="10.323296"
     inkscape:window-x="0"
     inkscape:window-y="0"
     inkscape:window-maximized="1"
     inkscape:current-layer="svg2">
    <inkscape:grid
       type="xygrid"
       id="grid3004" />
  </sodipodi:namedview>
  <path
     style="fill:#dcdcdc;fill-opacity:1"
     d="M 2.667969,-4.457e-4 C 2.324219,-4.457e-4 2,0.3378123 2,0.696447 L 2,15.303108 C 2,15.641365 2.34375,16 2.667969,16 l 10.664062,0 C 13.65625,16 14,15.641365 14,15.303108 L 14,3.9995541 10,-4.457e-4 z"
     id="path4"
     inkscape:connector-curvature="0"
     sodipodi:nodetypes="ssssssccs" />
  <path
     style="fill:#000000;fill-opacity:0.19599998"
     d="m 10.583223,3.3315851 0.0154,0.01953 0.04005,-0.01953 z m 0.02978,0.667969 3.387,3.664062 0,-3.664062 z"
     id="path6"
     inkscape:connector-curvature="0"
     sodipodi:nodetypes="cccccccc" />
  <path
     style="fill:#888888"
     d="m 6.963504,10.818512 0,-0.35924 c 0,-0.5182481 0.094227,-0.9422692 0.2709031,-1.2720633 C 7.4169706,8.8515242 7.7585439,8.4922844 8.2473449,8.1212671 8.9363803,7.6147967 9.3662902,7.2261115 9.5429664,6.9728763 9.7255299,6.7137523 9.813868,6.4075148 9.813868,6.0423848 9.813868,5.5889182 9.6489709,5.2414561 9.3132879,5 8.9893825,4.7467648 8.5123592,4.6230924 7.8939955,4.6230924 c -0.4004659,0 -0.7832623,0.047113 -1.1660588,0.1295612 -0.3769076,0.07656 -0.8068175,0.2296785 -1.29562,0.441689 L 4.9847389,4.299187 C 5.9387856,3.8633883 6.9340585,3.6395986 7.9705545,3.6395986 c 0.959937,0 1.7078619,0.2120106 2.2437775,0.624254 0.535916,0.4181323 0.800929,1.007049 0.800929,1.7667546 0,0.3180151 -0.053,0.6065846 -0.153118,0.853931 -0.09423,0.2473464 -0.235567,0.4770233 -0.429911,0.700813 C 10.243778,7.8032506 9.8315359,8.1507127 9.1955043,8.6395151 8.6831451,9.0223116 8.3474621,9.3403266 8.182565,9.5935618 8.0176679,9.8409067 7.9411089,10.18248 7.9411089,10.600612 l 0,0.2179 -0.9776049,0 m -0.3710188,1.978765 c 0,-0.606586 0.3062374,-0.906934 0.9069347,-0.906934 0.2944584,0 0.518248,0.07656 0.6772563,0.235568 0.1590068,0.153118 0.2414561,0.376907 0.2414561,0.671366 0,0.28268 -0.082449,0.50058 -0.2414561,0.665477 -0.1648986,0.153119 -0.3886867,0.229678 -0.6772563,0.229678 -0.259124,0 -0.4770248,-0.07067 -0.6478107,-0.206121 -0.1707859,-0.141341 -0.259124,-0.371018 -0.259124,-0.689034"
     id="path10"
     inkscape:connector-curvature="0" />
  <path
     style="fill:#ffffff;fill-opacity:0.39200003"
     d="m 10,-4.457e-4 3.996396,3.9999998 -3.383784,0 C 10.313513,3.9995541 10,3.6824371 10,3.3833381 z"
     id="path8"
     inkscape:connector-curvature="0"
     sodipodi:nodetypes="ccssc" />
</svg>

<svg xmlns="http://www.w3.org/2000/svg" viewBox="0 0 16 16">
 <path d="m 2.668 0 c -0.344 0 -0.668 0.338 -0.668 0.697 l 0 14.607 c 0 0.338 0.344 0.697 0.668 0.697 l 10.664 0 c 0.324 0 0.668 -0.359 0.668 -0.697 l 0 -11.304 -4 -4 z" style="fill:#dcdcdc;fill-opacity:1"/>
 <path d="m 10.583 3.332 0.015 0.02 0.04 -0.02 z m 0.03 0.668 3.387 3.664 0 -3.664 z" style="fill:#000;fill-opacity:0.196"/>
 <path d="m 6.964 10.819 0 -0.359 c 0 -0.518 0.094 -0.942 0.271 -1.272 c 0.183 -0.336 0.524 -0.695 1.013 -1.066 0.689 -0.506 1.119 -0.895 1.296 -1.148 0.183 -0.259 0.271 -0.565 0.271 -0.93 0 -0.453 -0.165 -0.801 -0.501 -1.042 -0.324 -0.253 -0.801 -0.377 -1.419 -0.377 c -0.4 0 -0.783 0.047 -1.166 0.13 -0.377 0.077 -0.807 0.23 -1.296 0.442 l -0.448 -0.895 c 0.954 -0.436 1.949 -0.66 2.986 -0.66 c 0.96 0 1.708 0.212 2.244 0.624 0.536 0.418 0.801 1.01 0.801 1.767 0 0.318 -0.053 0.607 -0.153 0.854 -0.094 0.247 -0.236 0.477 -0.43 0.701 c -0.188 0.218 -0.601 0.565 -1.237 1.054 -0.512 0.383 -0.848 0.701 -1.013 0.954 -0.165 0.247 -0.241 0.589 -0.241 1.01 l 0 0.218 -0.978 0 m -0.371 1.979 c 0 -0.607 0.306 -0.907 0.907 -0.907 0.294 0 0.518 0.077 0.677 0.236 0.159 0.153 0.241 0.377 0.241 0.671 0 0.283 -0.082 0.501 -0.241 0.665 -0.165 0.153 -0.389 0.23 -0.677 0.23 -0.259 0 -0.477 -0.071 -0.648 -0.206 -0.171 -0.141 -0.259 -0.371 -0.259 -0.689" style="fill:#888"/>
 <path d="m 10 0 3.996 4 -3.384 0 c -0.299 0 -0.613 -0.317 -0.613 -0.616 z" style="fill:#fff;fill-opacity:0.392"/>
</svg>
